!!!OTL: Der wilde Ritter.
!!!OTL-incipit: ES FLOH EIN RITTER MIT SEINER DAM
!!!ARE: Europa, Mitteleuropa, Deutschland, Rhein
!!!SCT: Z1039
!!!TXL: @@DE
!!!YEM: Copyright 1995, estate of Helmut Schaffrath.
**kern	**text
*ICvox	*
*M4/4	*
*met(c)	*
*k[f#c#]	*
*D:	*
!LO:TX:a:t=Vom Rheine.	!
{8f#L	Es
8gJ	.
=1	=1
4.a	floh
8a	ein
4a	Rit-
8b	-ter
8cc#	mit
=2	=2
4dd	ſei-
8cc#L	-ner
8bJ	.
4a}	Dam',
{8bL	ſie
8cc#J	.
=3	=3
4.dd	flo-
8b	-hen
8aL	weit
8gJ	.
8f#L	von
8gJ	.
=4	=4
2a	Hau-
4f#	-ſe,
8r}	.
{8f#	ſie
=5	=5
4e	flo-
8e	-hen
8f#	in
4e	ei-
8f#L	-nen
8g#J	.
=6	=6
4a	ſin-
8g#	-ſteren
8f#	.
4.e}	Wald,
{8cc#	wo
=7	=7
4.b/	nie
8a	ein.
4g#	Men-
8aL	-ſchen-
8bJ	.
=8	=8
4a	-tritt
4g#	er-
4f#}	-ſchallt,
{4a	von
=9	=9
(4g#	An-
8e)	.
8e	-be-
4f#	-ginn
4g#	der
=10	=10
2a	Wel-
4a}	-ten!
==	==
!!!Ag: Romanze, Ballade, Tod
!!!ONB: ESAC (Essen Associative Code) Database: ZUCCAL
!!!AMT: simple quadruple
!!!AIN: vox
!!!EED: Helmut Schaffrath
!!!EEV: 1.0
!!!GTL: I. Volks- Leuschen.
!!!URL-scan: https://www.digitale-sammlungen.de/de/view/bsb11160573?page=95
!!!ENC: Anna Maria Matuszewska
!!!EEV: 2025/03/02
*-	*-
